X:141
T:Miss McCloud
M:C
L:1/8
K:G Major
G2BG dGBG|B2BA BcBA|G2BG dGBG|ABAG AcBA|!
G2BG dGBG|BcBA B2d2|efed Bdef|gedB AcBA:|!
G2g2 edeg|B2BA BcBA|G2g2 edeg|agfe dcBA|!
G2g2 edeg|BcBA B2d2|efed Bdef|gedB AcBA:|!
